img/favicon.svg

<svg version="1.1" viewBox="0.0 0.0 751.0 721.0" fill="none" stroke="none" stroke-linecap="square" stroke-miterlimit="10" xmlns:xlink="http://www.w3.org/1999/xlink" xmlns="http://www.w3.org/2000/svg"><clipPath id="p.0"><path d="m0 0l751.0 0l0 721.0l-751.0 0l0 -721.0z" clip-rule="nonzero"/></clipPath><g clip-path="url(#p.0)"><path fill="#000000" fill-opacity="0.0" d="m0 0l751.0 0l0 721.0l-751.0 0z" fill-rule="evenodd"/><path fill="#ffffff" d="m293.10345 75.89556l0 191.6253l-50.271576 74.93967l-168.82803 97.710175c-4.757225 -22.770538 -7.5901794 -45.541077 -7.5901794 -69.24701c0 -141.35374 95.78592 -260.87234 226.68979 -295.02814zm66.41406 -75.87507c-192.5607 0 -358.5558 169.79018 -358.5558 370.90323c-0.96213543 156.50739 97.68347 295.93683 244.72983 349.06805l0 -71.14453c-65.451935 -29.39862 -118.58318 -80.632324 -149.8793 -145.1221l192.5607 -111.95517l4.7304993 -6.6280212l66.41406 -98.64563l0 -286.47583zm43.643555 0l0 719.97125c193.4961 -6.654724 348.10596 -165.05963 348.10596 -359.5179c0 -74.93967 -21.80841 -144.18669 -61.65686 -202.04845l-55.002075 32.258255c34.155823 49.336166 53.104553 109.09549 53.104553 169.79019c0 79.69687 -32.231567 155.57193 -89.1579 210.60074l0 -506.5643c-19.910889 -13.282818 -41.74597 -25.603497 -63.554382 -36.026627l0 590.96497c-21.80841 12.320679 -44.57895 20.872986 -68.28491 27.501038l0 -639.339c-19.937592 -4.757225 -41.74597 -6.65477 -63.554382 -7.5901794z" fill-rule="evenodd"/></g></svg>

<svg xmlns="http://www.w3.org/2000/svg" fill="none" stroke-linecap="square" stroke-miterlimit="10" viewBox="0 0 751 721">
    <path fill="currentColor" fill-rule="evenodd" d="M293.1 75.9v191.62l-50.27 74.94L74 440.17c-4.75-22.77-7.59-45.54-7.59-69.25 0-141.35 95.79-260.87 226.7-295.02zM359.52.02C166.96.02.96 169.82.96 370.92 0 527.43 98.65 666.86 245.7 720v-71.14c-65.45-29.4-118.58-80.64-149.88-145.12l192.56-111.96 4.73-6.63 66.42-98.64V.02zm43.64 0v719.97c193.5-6.65 348.1-165.06 348.1-359.52 0-74.94-21.8-144.18-61.65-202.04l-55 32.25a299.88 299.88 0 0 1 53.1 169.8c0 79.7-32.23 155.57-89.16 210.6V64.5A520.29 520.29 0 0 0 535 28.48v590.97c-21.8 12.32-44.58 20.87-68.28 27.5V7.61C446.78 2.85 424.97.96 403.16.02z"/>
</svg>
